X: 93
T: Da gu la Tunl-a                                 (Name)
L: 1/8
M: 4/4
K: C
A2>A2d2e2 [I:setbarnb 1]| 
E2A G E GE2 | 
A e e d c c d g | 
e8 | 
A c c d e ge2 | 
c> e d cA2A2 | 
c d/ e/ A G E Gc2 | 
A8 |]

@@@ Tune index: 8761
